X:3348
L:1/8
M:3/4
K:D
 fg |: a2 fdAF | D2 FAdc | B2 GFGA | B4 ef | g2 ecAG | E2 Acec | d2 defg | a4 fg | a2 fd AF | 
 D2 FAdc | B2 GFGA | B4 ef | g2 ecAG | E2 Acec | d2 dfaf | d4 fg :: a4 f2 | d2 e2 f2 | g4 B2 | B6 | 
 Ae ae ae | Ae ae ae | df af af | d2 f2 g2 | a4 f2 | d2 e2 f2 | g4 B2 | B6 | Ae ae ae | Ae ae ae | 
 df af af |1 d2 f2 g2 :|

